img/svg/palm.svg

<?xml version="1.0" encoding="utf-8"?><!DOCTYPE svg PUBLIC "-//W3C//DTD SVG 1.1//EN" "http://www.w3.org/Graphics/SVG/1.1/DTD/svg11.dtd"><svg version="1.1" baseProfile="full" xmlns="http://www.w3.org/2000/svg" xmlns:xlink="http://www.w3.org/1999/xlink" xmlns:ev="http://www.w3.org/2001/xml-events"   height="19px"   width="18px" ><path fill="rgb( 217, 244, 255 )" d="M0.66699999999997,5.654 C0,6.30200000000001 0.34800000000001,6.735 1.24000000000001,6.479 C3.35700000000003,5.871 7.00799999999998,5.02200000000001 8.67000000000002,5.81999999999999 C8.67000000000002,5.81999999999999 3.81,9.68600000000001 4.54199999999997,17.331 C4.63099999999997,18.258 5.32400000000001,19 5.99099999999999,19 C6.65899999999999,19 7.10199999999998,18.249 7.10000000000002,17.317 C7.096,15.21 7.45100000000002,11.285 9.57999999999998,6.453 C9.57999999999998,6.453 11.164,8.542 11.64,10.821 C11.831,11.733 12.185,11.861 12.432,10.962 C12.702,9.97499999999999 12.787,8.61499999999999 11.997,7.19 C11.997,7.19 15.021,8.83499999999999 16.99,10.956 C17.623,11.637 18,11.523 17.753,10.625 C17.234,8.739 15.703,5.812 11.191,4.941 C11.191,4.941 12.928,4.09099999999999 15.035,4.175 C15.963,4.212 16.268,3.77500000000001 15.442,3.34999999999999 C14.437,2.83199999999999 12.72,2.48399999999999 9.93000000000001,3.289 C9.93000000000001,3.289 8.58600000000001,0 4.24400000000003,0.13500000000001 C3.31599999999997,0.164 3.27600000000001,0.621 4.11000000000001,1.029 C5.55000000000001,1.733 7.541,2.869 7.93400000000003,3.922 C7.935,3.922 3.459,2.94199999999999 0.66699999999997,5.654 Z "/></svg>

<svg baseProfile="full" xmlns="http://www.w3.org/2000/svg" height="19" width="18"><path fill="rgb( 217, 244, 255 )" d="M.667 5.654c-.667.648-.319 1.081.573.825 2.117-.608 5.768-1.457 7.43-.659 0 0-4.86 3.866-4.128 11.511.089.927.782 1.669 1.449 1.669.668 0 1.111-.751 1.109-1.683-.004-2.107.351-6.032 2.48-10.864 0 0 1.584 2.089 2.06 4.368.191.912.545 1.04.792.141.27-.987.355-2.347-.435-3.772 0 0 3.024 1.645 4.993 3.766.633.681 1.01.567.763-.331-.519-1.886-2.05-4.813-6.562-5.684 0 0 1.737-.85 3.844-.766.928.037 1.233-.4.407-.825-1.005-.518-2.722-.866-5.512-.061 0 0-1.344-3.289-5.686-3.154-.928.029-.968.486-.134.894 1.44.704 3.431 1.84 3.824 2.893.001 0-4.475-.98-7.267 1.732z"/></svg>
